src/icons/outline/user-add.svg

<svg width="24" height="24" viewBox="0 0 24 24" fill="none" xmlns="http://www.w3.org/2000/svg">
<path d="M18 9V12M18 12V15M18 12H21M18 12H15M13 7C13 9.20914 11.2091 11 9 11C6.79086 11 5 9.20914 5 7C5 4.79086 6.79086 3 9 3C11.2091 3 13 4.79086 13 7ZM3 20C3 16.6863 5.68629 14 9 14C12.3137 14 15 16.6863 15 20V21H3V20Z" stroke="#4A5568" stroke-width="2" stroke-linecap="round" stroke-linejoin="round"/>
</svg>

<svg xmlns="http://www.w3.org/2000/svg" fill="none" viewBox="0 0 24 24" stroke="currentColor">
  <path stroke-linecap="round" stroke-linejoin="round" stroke-width="2" d="M18 9v3m0 0v3m0-3h3m-3 0h-3m-2-5a4 4 0 11-8 0 4 4 0 018 0zM3 20a6 6 0 0112 0v1H3v-1z"/>
</svg>
